X: 8
M: C|
L: 1/8
K: G
V: 1
d |:\
gdcB c3e | dBAG (3FGA Df |\
gdcB c3e | dcBAG2-G2 ::\
(3(EFG) G2 (3(FGA) A2 | GBdB AFED |
E>FGE ABcA | [1 BAGF G4 :|[2 BAGF G3 :|\
|: d |\
egdg cgBg | {c}B2(AG) {G}F2(ED) |\
egdg cgBg | cAGF G3 |]
V: 2 clef=bass middle=d
z |:\
g4 g4 | g2G2 d4 |\
z2e2 f2d2 | g2G2 d4 |\
z2e2 f2d2 |
[1 g2d2 G4 :|[2 g2d2 G3 :|\
|: z |\
g4 g4 | g2b2 d'2d2 |\
c2B2 A2G2 | d2d2 G3 |]

